!!!OTL: 169a. Haesleins Klage.
!!!ARE: Europa, Mitteleuropa, Deutschland, Hessen, Darmstadt; Baden
!!!SCT: E0169
!!!TXL: @@DE
!!!YEM: Copyright 1995, estate of Helmut Schaffrath.
**kern	**text
*ICvox	*
!! Mixed meters:  4/4; 3/4
*M4/4	*
*met(c)	*
*k[b-]	*
*F:	*
!LO:TX:a:t=Mäßig.	!
!LO:TX:a:t=Aus dem Heſſen-Darmſtädtiſchen und Badiſchen.	!
{8c	Jch
=1	=1
4f	ar-
4a	-mer
4.g	Has
8b-/	im
=2	=2
8.aL	wei-
16b-	.
8ccJ	.
8dd	-ten
4.cc}	Feld,
{8ff	wie
=3	=3
8cc	wird
8b-	mir
8b-	doch
8dd	ſo
4cc	grau-
4a	-ſam
=4	=4
(16aqq	.
4g)	nach-
4g	-ge-
4f	-ſtellt!
8r}	.
{8c	Bei
=5	=5
*M3/4	*
8f	Tag
8g	und
4.a	auch
8b-	bei
=6	=6
4a	Nachte,
4g	.
8r}	.
{8g	da
=7	=7
8g	thut
8a	man
4.b-	nach
8cc	mir
=8	=8
4b-/	trachten.
4a	.
8r}	.
{8g	Man
=9	=9
*M4/4	*
*met(c)	*
4.f	tracht
8a	mir
4.g	nach
8b-	dem
=10	=10
(8.aL	Le-
16b-	.
8ccJ)	.
8dd	-ben
4.cc}	mein
{8ff	wie
=11	=11
8cc	bin
8b-	ich
8b-	doch
8dd	ein
4cc	ar-
4a	-mes
=12	=12
16aqq	.
4g	Hä-
4g	-ſe-
4f	-lein!
8r}	.
==	==
!!!AGN: erzaehlendes Volks - Lied, Sage, Tier - Maerchen, Ballade ?
!!!ONB: ESAC (Essen Associative Code) Database: ERK1
!!!AMT: irregular
!!!AIN: vox
!!!EED: Helmut Schaffrath
!!!EEV: 1.0
!!!GTL: Thiersage und Pflanzenmaerchen
!!!URL-scan: https://rosdok.uni-rostock.de/mcrviewer/recordIdentifier/rosdok_ppn745146120/iview2/phys_0589.iview2?x=81.16084574254&y=1419.1330288443714&scale=0.6828302752574625&rotation=0&layout=singlePageLayout
!!!ENC: Anna Maria Matuszewska
!!!EEV: 2024/04/12
*-	*-
